X: 1
T: Johnny Will You Marry Me
M: 4/4
L: 1/8
R: reel
K: Cmaj
~G3A cded|cA~A2 fAcA|~G3A cdef|1 gage decA:|2 gage dece||
|:g2gf efg2|a2ag fga2|g2gf efge|1 cdec dece:|2 cdec decA||
